docs/.gitbook/assets/icon-clear-formatting-16@light.svg

<svg width="32" height="32" viewBox="0 0 16 16" fill="none" xmlns="http://www.w3.org/2000/svg">
<rect x="0" y="0" width="16" height="16" fill="#fff"/>
<path fill-rule="evenodd" clip-rule="evenodd" d="M2.26762 1.17572C2.58479 0.909304 3.05788 0.950443 3.3243 1.26761L3.9414 2.00226C3.96074 2.00076 3.98029 2 4.00002 2H13.25C13.6642 2 14 2.33579 14 2.75V4.25C14 4.66422 13.6642 5 13.25 5C12.8358 5 12.5 4.66422 12.5 4.25V3.5H8.75002V7.7268L13.8243 13.7676C14.0907 14.0848 14.0496 14.5579 13.7324 14.8243C13.4152 15.0907 12.9422 15.0496 12.6757 14.7324L7.42574 8.4824L2.17574 2.2324C1.90932 1.91523 1.95046 1.44214 2.26762 1.17572ZM7.25002 5.94109V3.5H5.19951L7.25002 5.94109ZM8.00002 11.25C8.41423 11.25 8.75002 11.5858 8.75002 12V13.5H9.25002C9.66423 13.5 10 13.8358 10 14.25C10 14.6642 9.66423 15 9.25002 15H8.00002H6.75002C6.3358 15 6.00002 14.6642 6.00002 14.25C6.00002 13.8358 6.3358 13.5 6.75002 13.5H7.25002V12C7.25002 11.5858 7.5858 11.25 8.00002 11.25Z" fill="#000"/>
</svg>

<svg xmlns="http://www.w3.org/2000/svg" width="32" height="32" fill="none" viewBox="0 0 16 16"><path fill="#fff" d="M0 0h16v16H0z"/><path fill="#000" fill-rule="evenodd" d="M2.268 1.176a.75.75 0 0 1 1.056.092l.617.734L4 2h9.25a.75.75 0 0 1 .75.75v1.5a.75.75 0 0 1-1.5 0V3.5H8.75v4.227l5.074 6.04a.75.75 0 1 1-1.148.965l-5.25-6.25-5.25-6.25a.75.75 0 0 1 .092-1.056M7.25 5.94V3.5H5.2zM8 11.25a.75.75 0 0 1 .75.75v1.5h.5a.75.75 0 0 1 0 1.5h-2.5a.75.75 0 0 1 0-1.5h.5V12a.75.75 0 0 1 .75-.75" clip-rule="evenodd"/></svg>
